src/assets/home/header-img.svg

<svg fill="none" height="493" viewBox="0 0 805 493" width="805" xmlns="http://www.w3.org/2000/svg" xmlns:xlink="http://www.w3.org/1999/xlink"><linearGradient id="a" gradientUnits="userSpaceOnUse" x1="385.426" x2="384.802" y1="179.403" y2="293.782"><stop offset="0" stop-color="#288c42"/><stop offset="1" stop-color="#fffcf9" stop-opacity="0"/></linearGradient><linearGradient id="b" gradientUnits="userSpaceOnUse" x1="160.562" x2="223.856" y1="200.265" y2="328.249"><stop offset="0" stop-color="#aeea99"/><stop offset="1" stop-color="#fffbe4"/></linearGradient><linearGradient id="c" gradientUnits="userSpaceOnUse" x1="688.369" x2="674.281" y1="191.52" y2="329.588"><stop offset="0" stop-color="#9cd18e"/><stop offset="1" stop-color="#fff"/><stop offset="1" stop-color="#eaff94"/></linearGradient><linearGradient id="d" gradientUnits="userSpaceOnUse" x1="406.758" x2="398.382" y1=".608994" y2="281.709"><stop offset="0" stop-color="#fffb92" stop-opacity=".28"/><stop offset=".973277" stop-color="#fff" stop-opacity=".43"/></linearGradient><linearGradient id="e" gradientUnits="userSpaceOnUse" x1="407.867" x2="415.137" y1="28.5329" y2="313.356"><stop offset="0" stop-color="#fffb92"/><stop offset="1" stop-color="#fff"/></linearGradient><linearGradient id="f" gradientUnits="userSpaceOnUse" x1="406.917" x2="406.758" y1="80.6574" y2="329.645"><stop offset="0" stop-color="#fff27c"/><stop offset="1" stop-color="#fffef7"/></linearGradient><linearGradient id="g" gradientUnits="userSpaceOnUse" x1="403.965" x2="403.965" y1="190.026" y2="353.381"><stop offset=".215544" stop-color="#fff"/><stop offset="1" stop-color="#fff" stop-opacity="0"/></linearGradient><linearGradient id="h" gradientUnits="userSpaceOnUse" x1="416.997" x2="408.154" y1="254.716" y2="318.941"><stop offset="0" stop-color="#fff991"/><stop offset="1" stop-color="#ff7862"/></linearGradient><linearGradient id="i" gradientUnits="userSpaceOnUse" x1="417.927" x2="408.619" y1="255.647" y2="307.772"><stop offset="0" stop-color="#fdff88"/><stop offset="1" stop-color="#fe8363"/></linearGradient><linearGradient id="j" gradientUnits="userSpaceOnUse" x1="383.488" x2="383.509" y1="319.872" y2="490"><stop offset="0" stop-color="#d6f4a4"/><stop offset="1" stop-color="#fcf6f1"/></linearGradient><path d="m672.76 241.155c53.343 35.428 89.8 50.127 127.724 59.927v106.285h-794.89922v-124.376c10.35812-15.956 39.49442-46.66 73.17492-41.836 42.1003 6.03 71.1703 41.836 113.2703 35.428 42.101-6.407 98.736-30.905 142.842-50.504 44.105-19.599 58.64 1.131 91.218 15.076s65.142-16.976 105.739-46.374 66.789-20.365 91.719 6.407c10.143 10.893 18.407 24.891 49.212 39.967z" fill="url(#a)"/><path d="m58.5469 187.844c-53.55962 32.499-66.12973 27.132-80.886 35.135v256.99h427.9301c.547-20.983 5.66-198.397-10.93-203.41-21.315-6.442-23.606-15.941-34.431-16.982-16.396-1.577-32.246 5.27-60.665-8.491-19.904-9.638-44.269-20.202-65.583-18.153-21.315 2.05-32.375 1.464-41.536-7.905-6.012-6.149-42.629-34.842-71.049-44.211-28.4189-9.369-48.4449-1.714-62.8501 7.027z" fill="url(#b)"/><path d="m764.796 207.983c13.102 12.125 29.115 20.855 39.702 25.26v346.743h-458.065v-261.64c15.55 4.016 53.3 4.741 79.901-24.482 26.6-29.222 43.176-26.036 56.576-17.875 13.399 8.16 24.317 19.896 44.168-4.663 24.814-30.7 43.673-17.488 53.599-10.104 9.925 7.383 24.264 13.629 45.161 2.72 44.665-23.316 53.49-56.958 74.938-72.28 28.288-20.207 49.742 3.109 64.02 16.321z" fill="url(#c)"/><ellipse cx="406.758" cy="226.327" fill="url(#d)" fill-opacity=".9" rx="225.253" ry="225.718"/><ellipse cx="407.223" cy="225.862" fill="url(#e)" fill-opacity=".5" rx="197.794" ry="197.329"/><circle cx="406.442" cy="226.476" fill="url(#f)" r="145.819"/><path d="m467.75 353.615c-4.804-8.187-10.279-11.836-17.752-11.836h-7.041v-32.181c9.77-6.211 18.039-14.725 24.109-24.806 1.259 1.235 2.907 1.966 5.071 1.966 3.215 0 7.735-5.442 10.89-10.533 3.175-5.123 6.572-12.547 6.572-18.021 0-10.578-7.206-13.658-11.409-13.871-.073-42.018-33.029-76.181-73.529-76.181s-73.453 34.163-73.526 76.184c-4.203.213-11.409 3.293-11.409 13.871 0 5.478 3.394 12.901 6.572 18.022 3.159 5.091 7.675 10.532 10.89 10.532 2.164 0 3.813-.734 5.071-1.966 6.103 10.14 14.435 18.694 24.278 24.915v23.05c0 4.675-3.836 8.478-8.554 8.478h-7.708c-8.828 0-16.85 3.096-22.586 8.721-6.122 6.002-9.357 14.441-9.357 24.403l3.981 67.444h82.348 82.347l-14.259-75.054c-1.028-4.816-2.71-9.235-4.999-13.137z" fill="url(#g)"/><path d="m418.461 301.087v.5h.5 1.952c.947 0 1.746.229 2.46.706.722.483 1.387 1.238 2.029 2.334.605 1.034 1.053 2.211 1.328 3.501l.002.011.003.011 2.686 10.291h-22.178-22.324v-8.303c0-2.657.858-4.865 2.444-6.422 1.486-1.462 3.579-2.28 5.909-2.28h2.137c1.581 0 2.871-1.277 2.871-2.855v-6.403-.275l-.233-.147c-2.661-1.686-4.916-4.005-6.568-6.756l-.326-.544-.452.444c-.253.248-.583.403-1.056.403-.087 0-.237-.04-.455-.179-.212-.136-.449-.339-.7-.6-.501-.521-1.012-1.221-1.438-1.91-.427-.689-.868-1.533-1.201-2.385-.335-.858-.546-1.687-.546-2.358 0-1.345.452-2.153.981-2.637.545-.497 1.218-.692 1.707-.717l.473-.024.001-.474c.02-11.416 8.949-20.664 19.88-20.664s19.86 9.248 19.88 20.663l.001.474.474.024c.488.025 1.162.22 1.706.717.53.484.981 1.292.981 2.637 0 .67-.21 1.499-.546 2.358-.333.851-.774 1.695-1.2 2.385-.426.689-.937 1.389-1.438 1.91-.251.261-.488.464-.7.6-.218.139-.368.179-.456.179-.473 0-.802-.154-1.055-.402l-.452-.445-.327.544c-1.643 2.735-3.881 5.043-6.522 6.726l-.232.148v.274z" fill="url(#h)" stroke="url(#i)"/><path d="m.847107 302.074c-79.733307 46.045-92.235407 34.57-120.256107 45.057v149.827h920.019v-217.024c-47.285 0-123.175 48.164-158.201 48.164-12.804 0-17.513-4.272-63.047-29.131-36.428-19.887-73.296 8.447-85.166 19.323-29.941 19.032-45.45-4.719-99.157-5.34-53.706-.621-79.311 37.288-95.657 34.181-10.35-1.968-24.28-26.024-51.717-45.057-27.437-19.032-46.273 0-64.098 10.876-48.453 12.818-72.191-7.502-102.1599-28.743-26.8533-19.033-49.6203 0-80.559993 17.867z" fill="url(#j)"/></svg>

<svg width="805" height="493" viewBox="0 0 805 493" fill="none" xmlns="http://www.w3.org/2000/svg">
<path d="M672.76 241.155C726.103 276.583 762.56 291.282 800.484 301.082V407.367H5.58478V282.991C15.9429 267.035 45.0792 236.331 78.7597 241.155C120.86 247.185 149.93 282.991 192.03 276.583C234.131 270.176 290.766 245.678 334.872 226.079C378.977 206.48 393.512 227.21 426.09 241.155C458.668 255.1 491.232 224.179 531.829 194.781C572.426 165.383 598.618 174.416 623.548 201.188C633.691 212.081 641.955 226.079 672.76 241.155Z" fill="url(#paint0_linear_24_1961)"/>
<path d="M58.5469 187.844C4.98728 220.343 -7.58283 214.976 -22.3391 222.979V479.969H405.591C406.138 458.986 411.251 281.572 394.661 276.559C373.346 270.117 371.055 260.618 360.23 259.577C343.834 258 327.984 264.847 299.565 251.086C279.661 241.448 255.296 230.884 233.982 232.933C212.667 234.983 201.607 234.397 192.446 225.028C186.434 218.879 149.817 190.186 121.397 180.817C92.9781 171.448 72.9521 179.103 58.5469 187.844Z" fill="url(#paint1_linear_24_1961)"/>
<path d="M764.796 207.983C777.898 220.108 793.911 228.838 804.498 233.243V579.986H346.433V318.346C361.983 322.362 399.733 323.087 426.334 293.864C452.934 264.642 469.51 267.828 482.91 275.989C496.309 284.149 507.227 295.885 527.078 271.326C551.892 240.626 570.751 253.838 580.677 261.222C590.602 268.605 604.941 274.851 625.838 263.942C670.503 240.626 679.328 206.984 700.776 191.662C729.064 171.455 750.518 194.771 764.796 207.983Z" fill="url(#paint2_linear_24_1961)"/>
<ellipse cx="406.758" cy="226.327" rx="225.253" ry="225.718" fill="url(#paint3_linear_24_1961)" fill-opacity="0.9"/>
<ellipse cx="407.223" cy="225.862" rx="197.794" ry="197.329" fill="url(#paint4_linear_24_1961)" fill-opacity="0.5"/>
<circle cx="406.442" cy="226.476" r="145.819" fill="url(#paint5_linear_24_1961)"/>
<path d="M467.75 353.615C462.946 345.428 457.471 341.779 449.998 341.779H442.957V309.598C452.727 303.387 460.996 294.873 467.066 284.792C468.325 286.027 469.973 286.758 472.137 286.758C475.352 286.758 479.872 281.316 483.027 276.225C486.202 271.102 489.599 263.678 489.599 258.204C489.599 247.626 482.393 244.546 478.19 244.333C478.117 202.315 445.161 168.152 404.661 168.152C364.161 168.152 331.208 202.315 331.135 244.336C326.932 244.549 319.726 247.629 319.726 258.207C319.726 263.685 323.12 271.108 326.298 276.229C329.457 281.32 333.973 286.761 337.188 286.761C339.352 286.761 341.001 286.027 342.259 284.795C348.362 294.935 356.694 303.489 366.537 309.71V332.76C366.537 337.435 362.701 341.238 357.983 341.238H350.275C341.447 341.238 333.425 344.334 327.689 349.959C321.567 355.961 318.332 364.4 318.332 374.362L322.313 441.806H404.661H487.008L472.749 366.752C471.721 361.936 470.039 357.517 467.75 353.615Z" fill="url(#paint6_linear_24_1961)"/>
<path d="M418.461 301.087V301.587H418.961H420.913C421.86 301.587 422.659 301.816 423.373 302.293C424.095 302.776 424.76 303.531 425.402 304.627C426.007 305.661 426.455 306.838 426.73 308.128L426.732 308.139L426.735 308.15L429.421 318.441H407.243H384.919V310.138C384.919 307.481 385.777 305.273 387.363 303.716L387.363 303.716C388.849 302.254 390.942 301.436 393.272 301.436H395.409C396.99 301.436 398.28 300.159 398.28 298.581V292.178V291.903L398.047 291.756C395.386 290.07 393.131 287.751 391.479 285L391.153 284.456L390.701 284.9C390.448 285.148 390.118 285.303 389.645 285.303C389.558 285.303 389.408 285.263 389.19 285.124C388.978 284.988 388.741 284.785 388.49 284.524C387.989 284.003 387.478 283.303 387.052 282.614L387.052 282.614C386.625 281.925 386.184 281.081 385.851 280.229C385.516 279.371 385.305 278.542 385.305 277.871C385.305 276.526 385.757 275.718 386.286 275.234C386.831 274.737 387.504 274.542 387.993 274.517L388.466 274.493L388.467 274.019C388.487 262.603 397.416 253.355 408.347 253.355C419.278 253.355 428.207 262.603 428.227 274.018L428.228 274.492L428.702 274.516C429.19 274.541 429.864 274.736 430.408 275.233C430.938 275.717 431.389 276.525 431.389 277.87C431.389 278.54 431.179 279.369 430.843 280.228C430.51 281.079 430.069 281.923 429.643 282.613C429.217 283.302 428.706 284.002 428.205 284.523C427.954 284.784 427.717 284.987 427.505 285.123C427.287 285.262 427.137 285.302 427.049 285.302C426.576 285.302 426.247 285.148 425.994 284.9L425.542 284.455L425.215 284.999C423.572 287.734 421.334 290.042 418.693 291.725L418.461 291.873V292.147V301.087Z" fill="url(#paint7_linear_24_1961)" stroke="url(#paint8_linear_24_1961)"/>
<path d="M0.847107 302.074C-78.8862 348.119 -91.3883 336.644 -119.409 347.131V496.958H800.61V279.934C753.325 279.934 677.435 328.098 642.409 328.098C629.605 328.098 624.896 323.826 579.362 298.967C542.934 279.08 506.066 307.414 494.196 318.29C464.255 337.322 448.746 313.571 395.039 312.95C341.333 312.329 315.728 350.238 299.382 347.131C289.032 345.163 275.102 321.107 247.665 302.074C220.228 283.042 201.392 302.074 183.567 312.95C135.114 325.768 111.376 305.448 81.4071 284.207C54.5538 265.174 31.7868 284.207 0.847107 302.074Z" fill="url(#paint9_linear_24_1961)"/>
<defs>
<linearGradient id="paint0_linear_24_1961" x1="385.426" y1="179.403" x2="384.802" y2="293.782" gradientUnits="userSpaceOnUse">
<stop stop-color="#288C42"/>
<stop offset="1" stop-color="#FFFCF9" stop-opacity="0"/>
</linearGradient>
<linearGradient id="paint1_linear_24_1961" x1="160.562" y1="200.265" x2="223.856" y2="328.249" gradientUnits="userSpaceOnUse">
<stop stop-color="#AEEA99"/>
<stop offset="1" stop-color="#FFFBE4"/>
</linearGradient>
<linearGradient id="paint2_linear_24_1961" x1="688.369" y1="191.52" x2="674.281" y2="329.588" gradientUnits="userSpaceOnUse">
<stop stop-color="#9CD18E"/>
<stop offset="1" stop-color="white"/>
<stop offset="1" stop-color="#EAFF94"/>
</linearGradient>
<linearGradient id="paint3_linear_24_1961" x1="406.758" y1="0.608994" x2="398.382" y2="281.709" gradientUnits="userSpaceOnUse">
<stop stop-color="#FFFB92" stop-opacity="0.28"/>
<stop offset="0.973277" stop-color="white" stop-opacity="0.43"/>
</linearGradient>
<linearGradient id="paint4_linear_24_1961" x1="407.867" y1="28.5329" x2="415.137" y2="313.356" gradientUnits="userSpaceOnUse">
<stop stop-color="#FFFB92"/>
<stop offset="1" stop-color="white"/>
</linearGradient>
<linearGradient id="paint5_linear_24_1961" x1="406.917" y1="80.6574" x2="406.758" y2="329.645" gradientUnits="userSpaceOnUse">
<stop stop-color="#FFF27C"/>
<stop offset="1" stop-color="#FFFEF7"/>
</linearGradient>
<linearGradient id="paint6_linear_24_1961" x1="403.965" y1="190.026" x2="403.965" y2="353.381" gradientUnits="userSpaceOnUse">
<stop offset="0.215544" stop-color="white"/>
<stop offset="1" stop-color="white" stop-opacity="0"/>
</linearGradient>
<linearGradient id="paint7_linear_24_1961" x1="416.997" y1="254.716" x2="408.154" y2="318.941" gradientUnits="userSpaceOnUse">
<stop stop-color="#FFF991"/>
<stop offset="1" stop-color="#FF7862"/>
</linearGradient>
<linearGradient id="paint8_linear_24_1961" x1="417.927" y1="255.647" x2="408.619" y2="307.772" gradientUnits="userSpaceOnUse">
<stop stop-color="#FDFF88"/>
<stop offset="1" stop-color="#FE8363"/>
</linearGradient>
<linearGradient id="paint9_linear_24_1961" x1="383.488" y1="319.872" x2="383.509" y2="490" gradientUnits="userSpaceOnUse">
<stop stop-color="#D6F4A4"/>
<stop offset="1" stop-color="#FCF6F1"/>
</linearGradient>
</defs>
</svg>
